rospo-icon-theme-classic-common/32x32/mimetypes/text-x-maxima-out.svg

<svg height="32" width="32" xmlns="http://www.w3.org/2000/svg"><path d="m7.25 5c-.6925 0-1.25.5575-1.25 1.25v22.5c0 .692.5575 1.25 1.25 1.25h17.5c.692 0 1.25-.558 1.25-1.25v-15.75l-8-8z" opacity=".2"/><path d="m7.25 4c-.6925 0-1.25.5575-1.25 1.25v22.5c0 .692.5575 1.25 1.25 1.25h17.5c.692 0 1.25-.558 1.25-1.25v-15.75l-8-8z" fill="#404b8b"/><path d="m26 13-8-8v6.75c0 .693.558 1.25 1.25 1.25z" opacity=".2"/><path d="m26 12-8-8v6.75c0 .693.558 1.25 1.25 1.25z" fill="#6672ba"/><path d="m7.25 4c-.6925 0-1.25.5575-1.25 1.25v1c0-.6925.5575-1.25 1.25-1.25h10.75v-1z" fill="#fff" opacity=".1"/><path d="m11.99995 16v1h .004l2.2959 3.9746-2.2998 3.9824v1.043h8v-2h-1v1h-5.869l2.0205-3.5.30274-.5244v-.001l-.30274-.5244-1.9922-3.4502h4.8408v.5h1v-1.5h-7z" opacity=".2"/><path d="m11.99995 15v1h .004l2.2959 3.9746-2.2998 3.9824v1.043h8v-2h-1v1h-5.869l2.0205-3.5.30274-.5244v-.001l-.30274-.5244-1.9922-3.4502h4.8408v.5h1v-1.5h-7z" fill="#f26265"/></svg>

<svg xmlns="http://www.w3.org/2000/svg" width="32" height="32" version="1.1">
 <path style="opacity:0.2" d="M 7.25,5 C 6.5575,5 6,5.5575 6,6.25 V 28.75 C 6,29.442 6.5575,30 7.25,30 H 24.75 C 25.442,30 26,29.442 26,28.75 V 13 L 18,5 Z"/>
 <path style="fill:#404b8b" d="M 7.25,4 C 6.5575,4 6,4.5575 6,5.25 V 27.75 C 6,28.442 6.5575,29 7.25,29 H 24.75 C 25.442,29 26,28.442 26,27.75 V 12 L 18,4 Z"/>
 <path style="opacity:0.2" d="M 26,13 18,5 V 11.75 C 18,12.443 18.558,13 19.25,13 Z"/>
 <path style="fill:#6672ba" d="M 26,12 18,4 V 10.75 C 18,11.443 18.558,12 19.25,12 Z"/>
 <path style="opacity:0.1;fill:#ffffff" d="M 7.25 4 C 6.5575 4 6 4.5575 6 5.25 L 6 6.25 C 6 5.5575 6.5575 5 7.25 5 L 18 5 L 18 4 L 7.25 4 z"/>
 <path style="opacity:0.2" d="m 11.99995,16 0,1 0.004,0 2.2959,3.9746 -2.2998,3.9824 0,1.043 8,0 0,-2 -1,0 0,1 -5.869,0 2.0205,-3.5 0.30274,-0.5244 0,-0.001 -0.30274,-0.5244 -1.9922,-3.4502 4.8408,0 0,0.5 1,0 0,-1.5 -7,0 z"/>
 <path style="fill:#f26265" d="m 11.99995,15 0,1 0.004,0 2.2959,3.9746 -2.2998,3.9824 0,1.043 8,0 0,-2 -1,0 0,1 -5.869,0 2.0205,-3.5 0.30274,-0.5244 0,-0.001 -0.30274,-0.5244 -1.9922,-3.4502 4.8408,0 0,0.5 1,0 0,-1.5 -7,0 z"/>
</svg>
